svgs/sharp-light/note-sticky.svg

<svg xmlns="http://www.w3.org/2000/svg" viewBox="0 0 448 512"><!--! Font Awesome Pro 6.4.0 by @fontawesome - https://fontawesome.com License - https://fontawesome.com/license (Commercial License) Copyright 2023 Fonticons, Inc. --><path d="M32 64H416V304H288 272v16V448H32V64zM304 442.7V336H410.7L304 442.7zm8 37.3L448 344V64 32H416 32 0V64 448v32H32 312z"/></svg>

<svg xmlns="http://www.w3.org/2000/svg" viewBox="0 0 448 512"><!--! Font Awesome Pro 6.6.0 by @fontawesome - https://fontawesome.com License - https://fontawesome.com/license (Commercial License) Copyright 2024 Fonticons, Inc. --><path d="M32 64l384 0 0 240-128 0-16 0 0 16 0 128L32 448 32 64zM304 442.7L304 336l106.7 0L304 442.7zm8 37.3L448 344l0-280 0-32-32 0L32 32 0 32 0 64 0 448l0 32 32 0 280 0z"/></svg>
